Resources/Icons/PCGEx_Editor_Fixed.svg

<?xml version="1.0" encoding="UTF-8"?>
<svg id="icons" xmlns="http://www.w3.org/2000/svg" viewBox="0 0 100 100">
  <defs>
    <style>
      .cls-1 {
        fill: #fff;
      }

      .cls-2 {
        fill: gray;
      }
    </style>
  </defs>
  <path class="cls-1" d="M67.79,47.63h-3.89v-10.91h0c-.06-7.68-6.3-13.9-14-13.9s-13.94,6.21-14,13.9h0v10.91h-3.89c-.86,0-1.56.7-1.56,1.56v21.79c0,.86.7,1.56,1.56,1.56h35.79c.86,0,1.56-.7,1.56-1.56v-21.79c0-.86-.7-1.56-1.56-1.56ZM41.33,36.72s0,.03,0,.04c.03-4.68,3.87-8.49,8.55-8.49s8.52,3.81,8.55,8.49c0-.01,0-.03,0-.04v10.91h-17.12v-10.91Z"/>
  <path class="cls-2" d="M15.25,54.23v26.48c0,2.39-1.77,4.16-4,4.16s-3.93-2.01-3.93-4.16V19.43c0-2.08,1.7-4.16,3.93-4.16s4,1.85,4,4.16v34.8Z"/>
  <path class="cls-2" d="M85.93,45.87v-26.48c0-2.39,1.77-4.16,4-4.16s3.93,2.01,3.93,4.16v61.27c0,2.08-1.7,4.16-3.93,4.16s-4-1.85-4-4.16v-34.8Z"/>
</svg>

<svg id="icons" xmlns="http://www.w3.org/2000/svg" viewBox="0 0 100 100">
    <defs>
        <style>.cls-1{fill:#fff;}.cls-2{fill:gray;}</style>
    </defs>
    <path class="cls-1"
          d="M67.79,47.63h-3.9V36.72h0a14,14,0,0,0-28,0h0V47.63H32a1.56,1.56,0,0,0-1.55,1.56V71A1.56,1.56,0,0,0,32,72.53h35.8A1.56,1.56,0,0,0,69.34,71V49.19A1.56,1.56,0,0,0,67.79,47.63ZM41.33,36.72v0a8.55,8.55,0,0,1,17.1,0V47.63H41.33Z"/>
    <path class="cls-2"
          d="M15.25,54.23V80.7a4,4,0,0,1-4,4.17A4.11,4.11,0,0,1,7.32,80.7V19.43a4.15,4.15,0,0,1,3.93-4.16,4.06,4.06,0,0,1,4,4.16v34.8Z"/>
    <path class="cls-2"
          d="M85.93,45.87V19.39a4,4,0,0,1,4-4.16,4.11,4.11,0,0,1,3.93,4.16V80.67a4.15,4.15,0,0,1-3.93,4.15,4.06,4.06,0,0,1-4-4.15V45.87Z"/>
</svg>
